public/formular-icons/english/lower-i.svg

<svg style="vertical-align:-.025ex" xmlns="http://www.w3.org/2000/svg" width=".781ex" height="1.52ex" viewBox="0 -661 345 672" xmlns:xlink="http://www.w3.org/1999/xlink"><defs><path id="a" d="M184 600q0 24 19 42t44 19q18 0 30-12t13-30q0-23-20-42t-44-20q-15 0-28 10t-14 33ZM21 287q0 8 9 31t24 51 44 51 60 22q39 0 65-23t27-62q0-17-14-56t-40-105-42-113q-5-22-5-32 0-25 17-25 9 0 19 3t23 14 27 35 25 59q3 12 5 14t17 2q20 0 20-10 0-8-9-31t-25-51-45-50-62-22q-32 0-59 21T74 74q0 17 5 32t43 114q38 101 44 121t7 39q0 24-17 24h-2q-30 0-55-33t-38-84q-1-1-2-3t-1-3-2-2-3-1-4 0-8 0H27q-6 6-6 9Z"/></defs><g stroke="currentColor" fill="currentColor" stroke-width="0"><use data-c="1D456" xlink:href="#a" transform="scale(1 -1)"/></g></svg>

<svg style="vertical-align: -0.025ex" xmlns="http://www.w3.org/2000/svg" width="0.781ex" height="1.52ex" role="img" focusable="false" viewBox="0 -661 345 672" xmlns:xlink="http://www.w3.org/1999/xlink"><defs><path id="MJX-49-TEX-I-1D456" d="M184 600Q184 624 203 642T247 661Q265 661 277 649T290 619Q290 596 270 577T226 557Q211 557 198 567T184 600ZM21 287Q21 295 30 318T54 369T98 420T158 442Q197 442 223 419T250 357Q250 340 236 301T196 196T154 83Q149 61 149 51Q149 26 166 26Q175 26 185 29T208 43T235 78T260 137Q263 149 265 151T282 153Q302 153 302 143Q302 135 293 112T268 61T223 11T161 -11Q129 -11 102 10T74 74Q74 91 79 106T122 220Q160 321 166 341T173 380Q173 404 156 404H154Q124 404 99 371T61 287Q60 286 59 284T58 281T56 279T53 278T49 278T41 278H27Q21 284 21 287Z"></path></defs><g stroke="currentColor" fill="currentColor" stroke-width="0" transform="scale(1,-1)"><g data-mml-node="math"><g data-mml-node="mi"><use data-c="1D456" xlink:href="#MJX-49-TEX-I-1D456"></use></g></g></g></svg>
